X:1
T:le Reel de la Pistroli
R:reel
C:Emile Benoit
Z:Kelly Russell, ABC by Gerry Strong
Z:Gerry Strong <gerry.strong:NF.sympatico.ca> irtrad-l 2001-01-06
M:C|
L:1/8
Q:120
K:D
| D2 DE FAAB | d2 fd ed B2 | A2 AB dfaf | edef e2 e2 |
| D2 DE FAAB | d2 fd ed B2 | A2 AB dfaf | edef d2 d2 :|
|:faab afde | fdef dBAF | DEFA BABd | edfd e2 e2 |
| faab afde | fdef dBAF | DEFA BABd | edfe ed d2 :|
